X:1
T:The Star Spangled Banner
T:The Star Spangled Banner
%%score { 1 | 2 }
L:1/8
M:none
K:C
V:1 treble nm="Piano" snm="Pno."
V:2 bass 
V:1
 G>E C2 E2 G2 | c4 e>d c2 | E2 ^F2 G4 | GG e3 d c2 | B4 AB c2 | c2 G2 E2 C2 | G>E C2 E2 G2 | %7
 c4 e>d c2 | E2 ^F2 G4 | GG e3 d c2 | B4 AB c2 | c2 G2 E2 C2 | e>e e2 f2 g2 | g4 fe d2 | e2 f2 f4 | %15
 f2 e3 d c2 | B4 AB c2 | E2 ^F2 G4 | G2 c2 c2 cB | A2 A2 A2 d2 | fedc c2 B2- | B2 GG c3 d | ef g6 | %23
 cd e3 f d2 | c6- c2 | z2 z2 z4 |] %26
V:2
 [G,,D,]4 [C,G,]4 | [C,G,]4 [E,,B,,]4 | [E,,B,,]4 [G,,D,]4 | [G,,D,]4 [D,A,]4 | B,,4 [A,,E,]4 | %5
 [C,G,]4 [E,,B,,]4 | [G,,D,]4 [C,G,]4 | [C,G,]4 [E,,B,,]4 | [E,,B,,]4 [G,,D,]4 | [G,,D,]4 [D,A,]4 | %10
 B,,4 [A,,E,]4 | [C,G,]4 [E,,B,,]4 | [E,,B,,]4 [F,,C,]4 | [G,,D,]4 [F,,C,]4 | [E,,B,,]4 [F,,C,]4 | %15
 [F,,C,]4 [D,A,]4 | B,,4 [A,,E,]4 | [E,,B,,]4 [G,,D,]4 | [G,,D,]4 [C,G,]4 | [A,,E,]4 [A,,E,]4 | %20
 [F,,C,]4 [C,G,]4 | B,,4 [C,G,]4 | [E,,B,,]4 [G,,D,]4 | [G,,D,]4 [E,,B,,]4 | [C,G,]4 [C,G,]4 | %25
 [C,G,]8 |] %26

